Newaita-dark/apps/48/kalzium.svg

<svg height="48pt" viewBox="0 0 48 48" width="48pt" xmlns="http://www.w3.org/2000/svg" xmlns:xlink="http://www.w3.org/1999/xlink"><linearGradient id="a"><stop offset="0" stop-opacity=".313725"/><stop offset=".222222" stop-opacity=".27451"/><stop offset="1" stop-opacity="0"/></linearGradient><radialGradient id="b" cx="450.908936" cy="189.579361" gradientTransform="matrix(.00000026 -.117199 -.210958 -.00000015 64.800164 95.392994)" gradientUnits="userSpaceOnUse" r="21.166656" xlink:href="#a"/><radialGradient id="c" cx="450.908936" cy="189.579361" gradientTransform="matrix(-.00000026 .117199 .210957 .00000015 -17.170572 -11.291174)" gradientUnits="userSpaceOnUse" r="21.166656" xlink:href="#a"/><radialGradient id="d" cx="450.908936" cy="189.579361" gradientTransform="matrix(-.00000026 -.117199 .210957 -.00000015 -17.170572 95.392937)" gradientUnits="userSpaceOnUse" r="21.166656" xlink:href="#a"/><radialGradient id="e" cx="450.908936" cy="189.579361" gradientTransform="matrix(.00000026 .117199 -.210958 .00000015 64.800161 -11.291224)" gradientUnits="userSpaceOnUse" r="21.166656" xlink:href="#a"/><linearGradient id="f" gradientTransform="matrix(.0200401 0 0 .093759 18.698079 20.158175)" gradientUnits="userSpaceOnUse" x1="255.323059" x2="255.323044" y1="233.5" y2="254.666656"><stop offset="0" stop-opacity=".27451"/><stop offset="1" stop-opacity="0"/></linearGradient><linearGradient id="g"><stop offset="0" stop-color="#424242"/><stop offset="1" stop-color="#616161"/></linearGradient><linearGradient id="h" gradientUnits="userSpaceOnUse" x1="23.814786" x2="23.814786" xlink:href="#g" y1="37.08948724995" y2="10.2978545001"/><linearGradient id="i" gradientTransform="matrix(.0833413 0 0 .0833761 2.646089 31.413177)" gradientUnits="userSpaceOnUse" x1="254" x2="254.000031" y1="127.666656" y2="-62.833382"><stop offset="0" stop-color="#f44336"/><stop offset="1" stop-color="#ef5350"/></linearGradient><linearGradient id="j" gradientTransform="matrix(.0833413 0 0 .0833761 14.553476 9.576332)" gradientUnits="userSpaceOnUse" x1="254" x2="254.000031" y1="127.666656" y2="-62.833382"><stop offset="0" stop-color="#5c6bc0"/><stop offset="1" stop-color="#7986cb"/></linearGradient><linearGradient id="k" gradientTransform="matrix(.0833413 0 0 .0833761 -9.261297 9.576332)" gradientUnits="userSpaceOnUse" x1="254" x2="254.000031" xlink:href="#g" y1="127.666656" y2="-62.833382"/><path d="m25.304688 42.050781h3.96875v-1.984375h-3.96875zm0 0" fill="url(#b)"/><path d="m22.328125 42.050781h-3.972656v1.984375h3.972656zm0 0" fill="url(#c)"/><path d="m22.328125 42.050781h-3.972656v-1.984375h3.972656zm0 0" fill="url(#d)"/><path d="m25.304688 42.050781h3.96875v1.984375h-3.96875zm0 0" fill="url(#e)"/><path d="m22.328125 41.554688h2.976563v2.480468h-2.976563zm0 0" fill="url(#f)"/><path d="m11.90625 10.308594c-.6875 0-1.328125.359375-1.6875.949218-.359375.589844-.382812 1.324219-.0625 1.9375l11.90625 22.824219c.339844.652344 1.015625 1.058594 1.753906 1.058594.734375 0 1.410156-.40625 1.75-1.058594l11.90625-22.824219c.320313-.613281.296875-1.347656-.0625-1.9375-.355468-.589843-.996094-.949218-1.6875-.949218zm3.257812 3.949218h17.300782l-8.648438 16.578126zm0 0" fill="url(#h)"/><path d="m37.679688 12.03125c-.027344.238281-.097657.464844-.207032.679688l-11.90625 22.820312c-.339844.652344-1.015625 1.0625-1.75 1.0625-.738281 0-1.414062-.410156-1.753906-1.0625l-11.90625-22.820312c-.109375-.207032-.179688-.429688-.207031-.664063-.046875.398437.023437.796875.207031 1.148437l11.90625 22.824219c.339844.652344 1.015625 1.058594 1.753906 1.058594.734375 0 1.410156-.40625 1.75-1.058594l11.90625-22.824219c.1875-.355468.257813-.761718.207032-1.164062zm-22.515626 1.738281.253907.488281h16.792969l.253906-.488281zm0 0" fill-opacity=".235294"/><path d="m11.90625 10.308594c-.566406 0-1.109375.246094-1.484375.671875-.375.429687-.546875 1-.472656 1.5625.125-.988281.960937-1.730469 1.957031-1.730469h23.816406c.988282 0 1.828125.734375 1.957032 1.71875.070312-.5625-.101563-1.128906-.476563-1.554688-.375-.425781-.914063-.667968-1.480469-.667968zm3.257812 4.453125 8.652344 16.578125 8.648438-16.578125h-.265625l-8.382813 16.074219-8.386718-16.074219zm0 0" fill="#fff" fill-opacity=".392157"/><path d="m11.90625 10.167969c-1.582031 0-2.605469 1.691406-1.875 3.09375l11.90625 22.820312c.789062 1.511719 2.964844 1.511719 3.753906 0l11.90625-22.820312c.730469-1.402344-.292968-3.09375-1.875-3.09375zm0 .28125h23.816406c1.382813 0 2.265625 1.453125 1.625 2.683593l-11.90625 22.820313c-.691406 1.320313-2.5625 1.320313-3.253906 0l-11.90625-22.820313c-.640625-1.230468.242188-2.683593 1.625-2.683593zm3.257812 3.667969c-.046874 0-.09375.027343-.117187.066406-.027344.042968-.027344.09375-.007813.140625l8.652344 16.574219c.023438.046874.070313.078124.125.078124.050782 0 .097656-.03125.125-.078124l8.648438-16.574219c.019531-.046875.019531-.097657-.003906-.140625-.027344-.039063-.074219-.066406-.121094-.066406zm.234376.28125h16.832031l-8.414063 16.132812zm0 0" fill="#212121"/><path d="m23.816406 26.175781c4.382813 0 7.9375 3.554688 7.9375 7.941407 0 4.386718-3.554687 7.941406-7.9375 7.941406-4.386718 0-7.941406-3.554688-7.941406-7.941406 0-4.386719 3.554688-7.941407 7.941406-7.941407zm0 0" fill="url(#i)"/><path d="m35.722656 4.335938c4.382813 0 7.9375 3.558593 7.9375 7.941406 0 4.386718-3.554687 7.941406-7.9375 7.941406-4.382812 0-7.9375-3.554688-7.9375-7.941406 0-4.382813 3.554688-7.941406 7.9375-7.941406zm0 0" fill="url(#j)"/><path d="m11.90625 4.335938c4.386719 0 7.9375 3.558593 7.9375 7.941406 0 4.386718-3.550781 7.941406-7.9375 7.941406-4.382812 0-7.9375-3.554688-7.9375-7.941406 0-4.382813 3.554688-7.941406 7.9375-7.941406zm0 0" fill="url(#k)"/><path d="m11.90625 4.335938c-4.398438 0-7.9375 3.542968-7.9375 7.941406 0 .128906.003906.253906.007812.378906.195313-4.226562 3.660157-7.566406 7.929688-7.566406 4.273438 0 7.734375 3.339844 7.929688 7.566406.007812-.125.007812-.25.007812-.378906 0-4.398438-3.539062-7.941406-7.9375-7.941406zm23.816406 0c-4.398437 0-7.9375 3.542968-7.9375 7.941406 0 .128906 0 .253906.007813.378906.195312-4.226562 3.65625-7.566406 7.929687-7.566406 4.269532 0 7.734375 3.339844 7.929688 7.566406.003906-.125.007812-.25.007812-.378906 0-4.398438-3.539062-7.941406-7.9375-7.941406zm-11.90625 21.839843c-4.398437 0-7.941406 3.539063-7.941406 7.941407 0 .125.003906.25.011719.375.191406-4.226563 3.65625-7.566407 7.929687-7.566407 4.269532 0 7.734375 3.339844 7.929688 7.566407.003906-.125.007812-.25.007812-.375 0-4.402344-3.542968-7.941407-7.9375-7.941407zm0 0" fill="#fff" fill-opacity=".392157"/><path d="m3.976562 11.890625c-.003906.128906-.007812.257813-.007812.386719 0 4.402344 3.539062 7.941406 7.9375 7.941406s7.9375-3.539062 7.9375-7.941406c0-.128906 0-.257813-.007812-.386719-.199219 4.21875-3.660157 7.554687-7.929688 7.554687-4.265625 0-7.726562-3.335937-7.929688-7.554687zm23.816407 0c-.007813.128906-.007813.257813-.007813.386719 0 4.402344 3.539063 7.941406 7.9375 7.941406 4.398438 0 7.9375-3.539062 7.9375-7.941406 0-.128906-.003906-.257813-.007812-.386719-.203125 4.21875-3.664063 7.554687-7.929688 7.554687-4.269531 0-7.730468-3.335937-7.929687-7.554687zm-11.90625 21.839844c-.007813.125-.011719.253906-.011719.386719 0 4.398437 3.542969 7.941406 7.941406 7.941406 4.394532 0 7.9375-3.542969 7.9375-7.941406 0-.132813-.003906-.261719-.011718-.386719-.199219 4.214843-3.660157 7.550781-7.925782 7.550781-4.269531 0-7.730468-3.335938-7.929687-7.550781zm0 0" fill-opacity=".235294"/><g fill="#212121"><path d="m23.816406 26.035156c-4.476562 0-8.082031 3.605469-8.082031 8.082032 0 4.472656 3.605469 8.082031 8.082031 8.082031 4.472656 0 8.078125-3.609375 8.078125-8.082031 0-4.476563-3.605469-8.082032-8.078125-8.082032zm0 .28125c4.320313 0 7.796875 3.476563 7.796875 7.800782 0 4.324218-3.476562 7.800781-7.796875 7.800781-4.324218 0-7.800781-3.476563-7.800781-7.800781 0-4.324219 3.476563-7.800782 7.800781-7.800782zm0 0"/><path d="m35.722656 4.195312c-4.472656 0-8.078125 3.609376-8.078125 8.082032 0 4.476562 3.605469 8.082031 8.078125 8.082031s8.078125-3.605469 8.078125-8.082031c0-4.472656-3.605469-8.082032-8.078125-8.082032zm0 .28125c4.320313 0 7.796875 3.476563 7.796875 7.800782 0 4.324218-3.476562 7.800781-7.796875 7.800781-4.324218 0-7.796875-3.476563-7.796875-7.800781 0-4.324219 3.472657-7.800782 7.796875-7.800782zm0 0"/><path d="m11.90625 4.195312c-4.472656 0-8.078125 3.609376-8.078125 8.082032 0 4.476562 3.605469 8.082031 8.078125 8.082031s8.078125-3.605469 8.078125-8.082031c0-4.472656-3.605469-8.082032-8.078125-8.082032zm0 .28125c4.324219 0 7.796875 3.476563 7.796875 7.800782 0 4.324218-3.472656 7.800781-7.796875 7.800781-4.320312 0-7.796875-3.476563-7.796875-7.800781 0-4.324219 3.476563-7.800782 7.796875-7.800782zm0 0"/></g></svg>

<?xml version="1.0" encoding="UTF-8"?>
<svg xmlns="http://www.w3.org/2000/svg" xmlns:xlink="http://www.w3.org/1999/xlink" width="48pt" height="48pt" viewBox="0 0 48 48" version="1.1">
<defs>
<radialGradient id="radial0" gradientUnits="userSpaceOnUse" cx="450.908936" cy="189.579361" fx="450.908936" fy="189.579361" r="21.166656" gradientTransform="matrix(0.000000261256,-0.117199,-0.210958,-0.000000152308,64.800164,95.392994)">
<stop offset="0" style="stop-color:rgb(0%,0%,0%);stop-opacity:0.313725;"/>
<stop offset="0.222222" style="stop-color:rgb(0%,0%,0%);stop-opacity:0.27451;"/>
<stop offset="1" style="stop-color:rgb(0%,0%,0%);stop-opacity:0;"/>
</radialGradient>
<radialGradient id="radial1" gradientUnits="userSpaceOnUse" cx="450.908936" cy="189.579361" fx="450.908936" fy="189.579361" r="21.166656" gradientTransform="matrix(-0.000000261255,0.117199,0.210957,0.000000152308,-17.170572,-11.291174)">
<stop offset="0" style="stop-color:rgb(0%,0%,0%);stop-opacity:0.313725;"/>
<stop offset="0.222222" style="stop-color:rgb(0%,0%,0%);stop-opacity:0.27451;"/>
<stop offset="1" style="stop-color:rgb(0%,0%,0%);stop-opacity:0;"/>
</radialGradient>
<radialGradient id="radial2" gradientUnits="userSpaceOnUse" cx="450.908936" cy="189.579361" fx="450.908936" fy="189.579361" r="21.166656" gradientTransform="matrix(-0.000000261255,-0.117199,0.210957,-0.000000152308,-17.170572,95.392937)">
<stop offset="0" style="stop-color:rgb(0%,0%,0%);stop-opacity:0.313725;"/>
<stop offset="0.222222" style="stop-color:rgb(0%,0%,0%);stop-opacity:0.27451;"/>
<stop offset="1" style="stop-color:rgb(0%,0%,0%);stop-opacity:0;"/>
</radialGradient>
<radialGradient id="radial3" gradientUnits="userSpaceOnUse" cx="450.908936" cy="189.579361" fx="450.908936" fy="189.579361" r="21.166656" gradientTransform="matrix(0.000000261256,0.117199,-0.210958,0.000000152308,64.800161,-11.291224)">
<stop offset="0" style="stop-color:rgb(0%,0%,0%);stop-opacity:0.313725;"/>
<stop offset="0.222222" style="stop-color:rgb(0%,0%,0%);stop-opacity:0.27451;"/>
<stop offset="1" style="stop-color:rgb(0%,0%,0%);stop-opacity:0;"/>
</radialGradient>
<linearGradient id="linear0" gradientUnits="userSpaceOnUse" x1="255.323059" y1="233.5" x2="255.323044" y2="254.666656" gradientTransform="matrix(0.0200401,0,0,0.093759,18.698079,20.158175)">
<stop offset="0" style="stop-color:rgb(0%,0%,0%);stop-opacity:0.27451;"/>
<stop offset="1" style="stop-color:rgb(0%,0%,0%);stop-opacity:0;"/>
</linearGradient>
<linearGradient id="linear1" gradientUnits="userSpaceOnUse" x1="254" y1="180.583328" x2="254" y2="-105.166656" gradientTransform="matrix(0.093759,0,0,0.093759,0,20.158175)">
<stop offset="0" style="stop-color:rgb(25.882353%,25.882353%,25.882353%);stop-opacity:1;"/>
<stop offset="1" style="stop-color:rgb(38.039216%,38.039216%,38.039216%);stop-opacity:1;"/>
</linearGradient>
<linearGradient id="linear2" gradientUnits="userSpaceOnUse" x1="254" y1="127.666656" x2="254.000031" y2="-62.833382" gradientTransform="matrix(0.0833413,0,0,0.0833761,2.646089,31.413177)">
<stop offset="0" style="stop-color:rgb(95.686275%,26.27451%,21.176471%);stop-opacity:1;"/>
<stop offset="1" style="stop-color:rgb(93.72549%,32.54902%,31.372549%);stop-opacity:1;"/>
</linearGradient>
<linearGradient id="linear3" gradientUnits="userSpaceOnUse" x1="254" y1="127.666656" x2="254.000031" y2="-62.833382" gradientTransform="matrix(0.0833413,0,0,0.0833761,14.553476,9.576332)">
<stop offset="0" style="stop-color:rgb(36.078431%,41.960784%,75.294118%);stop-opacity:1;"/>
<stop offset="1" style="stop-color:rgb(47.45098%,52.54902%,79.607843%);stop-opacity:1;"/>
</linearGradient>
<linearGradient id="linear4" gradientUnits="userSpaceOnUse" x1="254" y1="127.666656" x2="254.000031" y2="-62.833382" gradientTransform="matrix(0.0833413,0,0,0.0833761,-9.261297,9.576332)">
<stop offset="0" style="stop-color:rgb(25.882353%,25.882353%,25.882353%);stop-opacity:1;"/>
<stop offset="1" style="stop-color:rgb(38.039216%,38.039216%,38.039216%);stop-opacity:1;"/>
</linearGradient>
</defs>
<g id="surface1">
<path style=" stroke:none;fill-rule:nonzero;fill:url(#radial0);" d="M 25.304688 42.050781 L 29.273438 42.050781 L 29.273438 40.066406 L 25.304688 40.066406 Z M 25.304688 42.050781 "/>
<path style=" stroke:none;fill-rule:nonzero;fill:url(#radial1);" d="M 22.328125 42.050781 L 18.355469 42.050781 L 18.355469 44.035156 L 22.328125 44.035156 Z M 22.328125 42.050781 "/>
<path style=" stroke:none;fill-rule:nonzero;fill:url(#radial2);" d="M 22.328125 42.050781 L 18.355469 42.050781 L 18.355469 40.066406 L 22.328125 40.066406 Z M 22.328125 42.050781 "/>
<path style=" stroke:none;fill-rule:nonzero;fill:url(#radial3);" d="M 25.304688 42.050781 L 29.273438 42.050781 L 29.273438 44.035156 L 25.304688 44.035156 Z M 25.304688 42.050781 "/>
<path style=" stroke:none;fill-rule:nonzero;fill:url(#linear0);" d="M 22.328125 41.554688 L 25.304688 41.554688 L 25.304688 44.035156 L 22.328125 44.035156 Z M 22.328125 41.554688 "/>
<path style=" stroke:none;fill-rule:nonzero;fill:url(#linear1);" d="M 11.90625 10.308594 C 11.21875 10.308594 10.578125 10.667969 10.21875 11.257812 C 9.859375 11.847656 9.835938 12.582031 10.15625 13.195312 L 22.0625 36.019531 C 22.402344 36.671875 23.078125 37.078125 23.816406 37.078125 C 24.550781 37.078125 25.226562 36.671875 25.566406 36.019531 L 37.472656 13.195312 C 37.792969 12.582031 37.769531 11.847656 37.410156 11.257812 C 37.054688 10.667969 36.414062 10.308594 35.722656 10.308594 Z M 15.164062 14.257812 L 32.464844 14.257812 L 23.816406 30.835938 Z M 15.164062 14.257812 "/>
<path style=" stroke:none;fill-rule:nonzero;fill:rgb(0%,0%,0%);fill-opacity:0.235294;" d="M 37.679688 12.03125 C 37.652344 12.269531 37.582031 12.496094 37.472656 12.710938 L 25.566406 35.53125 C 25.226562 36.183594 24.550781 36.59375 23.816406 36.59375 C 23.078125 36.59375 22.402344 36.183594 22.0625 35.53125 L 10.15625 12.710938 C 10.046875 12.503906 9.976562 12.28125 9.949219 12.046875 C 9.902344 12.445312 9.972656 12.84375 10.15625 13.195312 L 22.0625 36.019531 C 22.402344 36.671875 23.078125 37.078125 23.816406 37.078125 C 24.550781 37.078125 25.226562 36.671875 25.566406 36.019531 L 37.472656 13.195312 C 37.660156 12.839844 37.730469 12.433594 37.679688 12.03125 Z M 15.164062 13.769531 L 15.417969 14.257812 L 32.210938 14.257812 L 32.464844 13.769531 Z M 15.164062 13.769531 "/>
<path style=" stroke:none;fill-rule:nonzero;fill:rgb(100%,100%,100%);fill-opacity:0.392157;" d="M 11.90625 10.308594 C 11.339844 10.308594 10.796875 10.554688 10.421875 10.980469 C 10.046875 11.410156 9.875 11.980469 9.949219 12.542969 C 10.074219 11.554688 10.910156 10.8125 11.90625 10.8125 L 35.722656 10.8125 C 36.710938 10.8125 37.550781 11.546875 37.679688 12.53125 C 37.75 11.96875 37.578125 11.402344 37.203125 10.976562 C 36.828125 10.550781 36.289062 10.308594 35.722656 10.308594 Z M 15.164062 14.761719 L 23.816406 31.339844 L 32.464844 14.761719 L 32.199219 14.761719 L 23.816406 30.835938 L 15.429688 14.761719 Z M 15.164062 14.761719 "/>
<path style=" stroke:none;fill-rule:nonzero;fill:rgb(12.941177%,12.941177%,12.941177%);fill-opacity:1;" d="M 11.90625 10.167969 C 10.324219 10.167969 9.300781 11.859375 10.03125 13.261719 L 21.9375 36.082031 C 22.726562 37.59375 24.902344 37.59375 25.691406 36.082031 L 37.597656 13.261719 C 38.328125 11.859375 37.304688 10.167969 35.722656 10.167969 Z M 11.90625 10.449219 L 35.722656 10.449219 C 37.105469 10.449219 37.988281 11.902344 37.347656 13.132812 L 25.441406 35.953125 C 24.75 37.273438 22.878906 37.273438 22.1875 35.953125 L 10.28125 13.132812 C 9.640625 11.902344 10.523438 10.449219 11.90625 10.449219 Z M 15.164062 14.117188 C 15.117188 14.117188 15.070312 14.144531 15.046875 14.183594 C 15.019531 14.226562 15.019531 14.277344 15.039062 14.324219 L 23.691406 30.898438 C 23.714844 30.945312 23.761719 30.976562 23.816406 30.976562 C 23.867188 30.976562 23.914062 30.945312 23.941406 30.898438 L 32.589844 14.324219 C 32.609375 14.277344 32.609375 14.226562 32.585938 14.183594 C 32.558594 14.144531 32.511719 14.117188 32.464844 14.117188 Z M 15.398438 14.398438 L 32.230469 14.398438 L 23.816406 30.53125 Z M 15.398438 14.398438 "/>
<path style=" stroke:none;fill-rule:nonzero;fill:url(#linear2);" d="M 23.816406 26.175781 C 28.199219 26.175781 31.753906 29.730469 31.753906 34.117188 C 31.753906 38.503906 28.199219 42.058594 23.816406 42.058594 C 19.429688 42.058594 15.875 38.503906 15.875 34.117188 C 15.875 29.730469 19.429688 26.175781 23.816406 26.175781 Z M 23.816406 26.175781 "/>
<path style=" stroke:none;fill-rule:nonzero;fill:url(#linear3);" d="M 35.722656 4.335938 C 40.105469 4.335938 43.660156 7.894531 43.660156 12.277344 C 43.660156 16.664062 40.105469 20.21875 35.722656 20.21875 C 31.339844 20.21875 27.785156 16.664062 27.785156 12.277344 C 27.785156 7.894531 31.339844 4.335938 35.722656 4.335938 Z M 35.722656 4.335938 "/>
<path style=" stroke:none;fill-rule:nonzero;fill:url(#linear4);" d="M 11.90625 4.335938 C 16.292969 4.335938 19.84375 7.894531 19.84375 12.277344 C 19.84375 16.664062 16.292969 20.21875 11.90625 20.21875 C 7.523438 20.21875 3.96875 16.664062 3.96875 12.277344 C 3.96875 7.894531 7.523438 4.335938 11.90625 4.335938 Z M 11.90625 4.335938 "/>
<path style=" stroke:none;fill-rule:nonzero;fill:rgb(100%,100%,100%);fill-opacity:0.392157;" d="M 11.90625 4.335938 C 7.507812 4.335938 3.96875 7.878906 3.96875 12.277344 C 3.96875 12.40625 3.972656 12.53125 3.976562 12.65625 C 4.171875 8.429688 7.636719 5.089844 11.90625 5.089844 C 16.179688 5.089844 19.640625 8.429688 19.835938 12.65625 C 19.84375 12.53125 19.84375 12.40625 19.84375 12.277344 C 19.84375 7.878906 16.304688 4.335938 11.90625 4.335938 Z M 35.722656 4.335938 C 31.324219 4.335938 27.785156 7.878906 27.785156 12.277344 C 27.785156 12.40625 27.785156 12.53125 27.792969 12.65625 C 27.988281 8.429688 31.449219 5.089844 35.722656 5.089844 C 39.992188 5.089844 43.457031 8.429688 43.652344 12.65625 C 43.65625 12.53125 43.660156 12.40625 43.660156 12.277344 C 43.660156 7.878906 40.121094 4.335938 35.722656 4.335938 Z M 23.816406 26.175781 C 19.417969 26.175781 15.875 29.714844 15.875 34.117188 C 15.875 34.242188 15.878906 34.367188 15.886719 34.492188 C 16.078125 30.265625 19.542969 26.925781 23.816406 26.925781 C 28.085938 26.925781 31.550781 30.265625 31.746094 34.492188 C 31.75 34.367188 31.753906 34.242188 31.753906 34.117188 C 31.753906 29.714844 28.210938 26.175781 23.816406 26.175781 Z M 23.816406 26.175781 "/>
<path style=" stroke:none;fill-rule:nonzero;fill:rgb(0%,0%,0%);fill-opacity:0.235294;" d="M 3.976562 11.890625 C 3.972656 12.019531 3.96875 12.148438 3.96875 12.277344 C 3.96875 16.679688 7.507812 20.21875 11.90625 20.21875 C 16.304688 20.21875 19.84375 16.679688 19.84375 12.277344 C 19.84375 12.148438 19.84375 12.019531 19.835938 11.890625 C 19.636719 16.109375 16.175781 19.445312 11.90625 19.445312 C 7.640625 19.445312 4.179688 16.109375 3.976562 11.890625 Z M 27.792969 11.890625 C 27.785156 12.019531 27.785156 12.148438 27.785156 12.277344 C 27.785156 16.679688 31.324219 20.21875 35.722656 20.21875 C 40.121094 20.21875 43.660156 16.679688 43.660156 12.277344 C 43.660156 12.148438 43.65625 12.019531 43.652344 11.890625 C 43.449219 16.109375 39.988281 19.445312 35.722656 19.445312 C 31.453125 19.445312 27.992188 16.109375 27.792969 11.890625 Z M 15.886719 33.730469 C 15.878906 33.855469 15.875 33.984375 15.875 34.117188 C 15.875 38.515625 19.417969 42.058594 23.816406 42.058594 C 28.210938 42.058594 31.753906 38.515625 31.753906 34.117188 C 31.753906 33.984375 31.75 33.855469 31.742188 33.730469 C 31.542969 37.945312 28.082031 41.28125 23.816406 41.28125 C 19.546875 41.28125 16.085938 37.945312 15.886719 33.730469 Z M 15.886719 33.730469 "/>
<path style=" stroke:none;fill-rule:nonzero;fill:rgb(12.941177%,12.941177%,12.941177%);fill-opacity:1;" d="M 23.816406 26.035156 C 19.339844 26.035156 15.734375 29.640625 15.734375 34.117188 C 15.734375 38.589844 19.339844 42.199219 23.816406 42.199219 C 28.289062 42.199219 31.894531 38.589844 31.894531 34.117188 C 31.894531 29.640625 28.289062 26.035156 23.816406 26.035156 Z M 23.816406 26.316406 C 28.136719 26.316406 31.613281 29.792969 31.613281 34.117188 C 31.613281 38.441406 28.136719 41.917969 23.816406 41.917969 C 19.492188 41.917969 16.015625 38.441406 16.015625 34.117188 C 16.015625 29.792969 19.492188 26.316406 23.816406 26.316406 Z M 23.816406 26.316406 "/>
<path style=" stroke:none;fill-rule:nonzero;fill:rgb(12.941177%,12.941177%,12.941177%);fill-opacity:1;" d="M 35.722656 4.195312 C 31.25 4.195312 27.644531 7.804688 27.644531 12.277344 C 27.644531 16.753906 31.25 20.359375 35.722656 20.359375 C 40.195312 20.359375 43.800781 16.753906 43.800781 12.277344 C 43.800781 7.804688 40.195312 4.195312 35.722656 4.195312 Z M 35.722656 4.476562 C 40.042969 4.476562 43.519531 7.953125 43.519531 12.277344 C 43.519531 16.601562 40.042969 20.078125 35.722656 20.078125 C 31.398438 20.078125 27.925781 16.601562 27.925781 12.277344 C 27.925781 7.953125 31.398438 4.476562 35.722656 4.476562 Z M 35.722656 4.476562 "/>
<path style=" stroke:none;fill-rule:nonzero;fill:rgb(12.941177%,12.941177%,12.941177%);fill-opacity:1;" d="M 11.90625 4.195312 C 7.433594 4.195312 3.828125 7.804688 3.828125 12.277344 C 3.828125 16.753906 7.433594 20.359375 11.90625 20.359375 C 16.378906 20.359375 19.984375 16.753906 19.984375 12.277344 C 19.984375 7.804688 16.378906 4.195312 11.90625 4.195312 Z M 11.90625 4.476562 C 16.230469 4.476562 19.703125 7.953125 19.703125 12.277344 C 19.703125 16.601562 16.230469 20.078125 11.90625 20.078125 C 7.585938 20.078125 4.109375 16.601562 4.109375 12.277344 C 4.109375 7.953125 7.585938 4.476562 11.90625 4.476562 Z M 11.90625 4.476562 "/>
</g>
</svg>
